X:47
T: ES TANZT EIN BI BA BUTZEMANN
N: K0439
O: Europa, Mitteleuropa, Deutschland, Thueringen; Hessen
R: Kinder - Lied, Lehre, Strafe, Zucht - Reim
M: 2/4
L: 1/16
K: G
D2 | G4B4 | d4g4 | e3ee2
e2 | d2c2B2A2 | G2B2d2
D2 | G4B4 | d4g4 | e3ee2
e2 | d2c2B2A2 | G4z2
B2 | A2B2c2A2 | B2c2d2
B2 | A2B2c2A2 | B2c2d2
D2 | G4B4 | d4g4 | e3ee2
e2 | d2c2B2A2 | G4z2

@@@ Tune index: 7384
